X:1
T:Title
%%score 1 2
L:1/8
Q:1/4=120
M:6/4
K:Bb
V:1 treble nm="Strings 1, Soprano"
V:2 bass nm="Strings 1, Bass"
V:1
 z6 z4 [DF]2 | [Fd]4 [Ec]2 [DB]4 [DF]2 | [EG][EG]- [EG]4- [EG]4 [EG]2 | [EA]4 [EG]2 [DF]4 [CE]2 | %4
w: 1.~There~|is~ a~ blest~ pa|vil ion,~ * * A~|sa cred~ in ner~|
 [B,D]6- [B,D]4 [DF]2 | [Fd]4 [Ec]2 [DB]4 [DF]2 | [EG][EG]- [EG]4- [EG]4 [EG]2 | %7
w: court,~ * The~|place~ of~ God's~ own~|dwell ing,~ * * With~|
 [EA]4 [Ec]2 [EG]4 [EA]2 | [DB]6- [DB]4 [DF]2 | [DF]4 [EG]2 [DF]4 [B,D]2 | [DB]6- [DB]4 [DF]2 | %11
w: all~ the~ world~ shut~|out.~ * Oh,~|ho ly~ rest ing~|place!~ * Oh,~|
 [EG]4 [B,E]2 [EB]4 [EG]2 | [DF]6- [DF]4 [B,D]2 | [CE]4 [A,C]2 [CF]4 [CE]2 | [B,D]6- [B,D]4 [DF]2 | %15
w: calm~ and~ pure~ re|treat!~ * Where~|God~ un veils~ His~|face,~ * And~|
 [EG]4 [Ec]2 [DB]4 [EA]2 | [DB]6- [DB]4 [B,D]2 | [B,D]4 [B,D]2 [A,C]4 [A,C]2 | %18
w: life~ is~ on ly~|sweet.~ * *||
 [B,D]6- [B,D]4 [DF]2 | [EG]4 [EG]2 [CF]4 [C=E]2 | [DF]12 |] %21
w: |||
V:2
 z6 z4 [B,,B,]2 | [B,,B,]4 [B,,F,]2 [B,,F,]4 [B,,B,]2 | [E,B,][E,B,]- [E,B,]4- [E,B,]4 [G,B,]2 | %3
 [F,C]4 [F,C]2 [F,B,]4 F,2 | [B,,F,]6- [B,,F,]4 [B,,B,]2 | [B,,B,]4 [B,,F,]2 [B,,F,]4 [B,,B,]2 | %6
 [E,B,][E,B,]- [E,B,]4- [E,B,]4 [G,B,]2 | [F,C]4 [F,C]2 [F,C]4 [F,,F,C]2 | %8
 [B,,B,]6- [B,,B,]4 [B,,B,]2 | [B,,B,]4 [B,,B,]2 [B,,B,]4 [B,,F,]2 | [B,,F,]6- [B,,F,]4 [B,,B,]2 | %11
 [E,B,]4 [E,G,]2 [E,G,]4 [E,B,]2 | [B,,B,]6- [B,,B,]4 [B,,F,]2 | F,4 F,2 [F,A,]4 [F,A,]2 | %14
 [B,,F,]6- [B,,F,]4 [B,,B,]2 | [E,B,]4 [E,G,]2 F,4 F,2 | [B,,F,]6- [B,,F,]4 [B,,F,]2 | %17
 [B,,F,]4 [B,,F,]2 [F,,F,]4 [F,,F,]2 | [B,,F,]6- [B,,F,]4 [B,,B,]2 | %19
 [E,B,]4 [E,B,]2 [F,,F,A,]4 [F,,F,A,]2 | [B,,B,]12 |] %21

